X:1
T:Kalnu karaļa alā
T:Kalnu karaļa alā
T:Edvard Grieg
C:Edvard Grieg
%%score { 1 | 2 } 3 { ( 4 6 ) | 5 }
L:1/8
M:4/4
K:Eb
V:1 treble nm="Accordion" snm="Acc."
V:2 bass 
V:3 treble transpose=-9 nm="Alto Saxophone" snm="A. Sax."
V:4 bass nm="Piano" snm="Pno."
V:6 bass 
V:5 bass 
V:1
 !fermata!G8 |[Q:1/4=110] z8 | z8 | z8 | z8 | z8 | z8 | z8 | z8 | z8 | z8 | z8 | z8 | z8 | z8 | %15
 z8 | z8 | z8 | z8 | z8 | z8 | z8 | z8 | z8 | z8 ||!p! .c.d.e.f !>!.g.e .g2 | %26
 !>!.^f.d .f2 !>!.=f.^c .f2 | .c.d.e.f .g.e.g.c' | !>!.b.g.e.g !>!.b2 z2 | %29
[Q:1/4=118] z2 .[eg]2 z2 .[eg]2 | z2 .[d^f]2 z2 .[^c=f]2 | z2 .[ce]2 z2 .[ce]2 | %32
 z2 .[Be]2 z2 .[Be]2 |[Q:1/4=124]!<(! .g.=a.=b.c' !>!.d'.b .d'2 | !>!.e'.=b .e'2 !>!.d'.b .d'2 | %35
 .g.=a.=b.c' !>!.d'.b .d'2 | !>!.e'.=b .e'2 !>!.d'2 z2 |[Q:1/4=130] z2 .[=Bd]2 z2 .[Bd]2 | %38
 z2 .[=Be]2 z2 .[Bd]2 | z2 .[=Bd]2 z2 .[Bd]2 | z2 .[=Be]2 z2 .[Bd]2 | %41
!f![Q:1/4=136] .c.d.e.f !>!.g.e .g2 | !>!.^f.d .f2 !>!.=f.^c .f2 |[Q:1/4=142] .c.d.e.f .g.e.g.c' | %44
 !>!.b.g.e.g !>!.b2 z2 |[Q:1/4=150] z2!mf! (5:4:5(!>!g/a/g/^f/g/) z2 (5:4:5(!>!g/a/g/f/g/) | %46
[Q:1/4=154] z2 (5:4:5(!>!g/a/g/^f/g/) z2 (5:4:5(!>!g/a/g/f/g/)!<)! | %47
[Q:1/4=160] z2!p!!<(! (5:4:5(!>!g/a/g/^f/g/) (5:4:5(!>!g/a/g/f/g/) (5:4:5(!>!g/a/g/f/g/) | %48
[Q:1/4=165]!<(! (5:4:5(!>!g/a/g/^f/g/) (5:4:5(!>!g/a/g/f/g/) (5:4:5(!>!g/a/g/f/g/) (5:4:5(!>!g/a/g/f/g/)!<)!!<)! || %49
!ff![Q:1/4=170] cdef !>!ge g2 | !>!^fd f2 !>!=f^c f2 | cdef gegc' | !>!bgeg !>!b4 | cdef !>!ge g2 | %54
 !>!^fd f2 !>!=f^c f2 | cdef gegc' | !>!bgeg !>!b4 |!8va(! g=a=bc' !>!d'b d'2 | %58
 !>!e'=b e'2 !>!d'b d'2 | g=a=bc' !>!d'b d'2 | !>!e'=b e'2 !>!d'4 | g=a=bc' !>!d'b d'2 | %62
 !>!=e'=b e'2 !>!d'b d'2 | g=a=bc' !>!d'b d'2 | !>!=e'=b e'2 !>!d'4!8va)! |!ff! cdef !>!ge g2 | %66
 !>!^fd f2 !>!=f^c f2 | cdef gegc' | !>!bgeg !>!b4 | cdef !>!ge g2 | !>!^fd f2 !>!=f^c f2 | %71
 cdef gegc' | gegc' !>![cc']4 |[Q:1/4=200]!ff! z2 (!>![e^f]/[d=f]/).[e^f] z4 | %74
 z2 (!>![eg]/[d^f]/).[eg] z4 |!mp!!<(! z2 [A,CE]2 z2 [G,CE]2 | z2 [=B,DFG]2 z2 [G,CE]2!<)! | %77
!ff! z2 (!>![e^f]/[d=f]/).[e^f] z4 | z2 (!>![eg]/[d^f]/).[eg] z4 |!mf! c!<(!def gegc' | %80
 =bgbd'!<)! !>!c'4 |!ff! z2 (!>![e^f]/[d=f]/).[e^f] z4 | z2 (!>![e^f]/[d=f]/).[e^f] z4 | %83
!ff! z2!p!!<(! (!>![e^f]/[d=f]/).[e^f] (!>![ef]/[d=f]/).[e^f] (!>![ef]/[d=f]/).[e^f] | %84
 (!>![e^f]/[d=f]/).[e^f] (!>![ef]/[d=f]/).[e^f] (!>![ef]/[d=f]/).[e^f]!<)!!ff! (!>![ef]/[d=f]/).[e^f] | %85
 z8 | z8 |!fff! z2 (!>![eg]/[d^f]/).[eg] z4 |] %88
V:2
 z8 |!pp! .[C,,C,]2 .[G,,G,]2 .[C,,C,]2 .[G,,G,]2 | .[C,,C,]2 .[G,,G,]2 .[C,,C,]2 .[G,,G,]2 | %3
 .[C,,C,]2 .[G,,G,]2 .[C,,C,]2 .[G,,G,]2 | .[E,,E,]2 .[B,,B,]2 .[E,,E,]2 .[B,,B,]2 | %5
!p! .[C,,C,].[D,,D,].[E,,E,].[F,,F,] !>!.!^![G,,G,].[E,,E,] .[G,,G,]2 | %6
 !>!.!^![^F,,^F,].[D,,D,] .[F,,F,]2 !>!.!^![=F,,=F,].[^C,,^C,] .[F,,F,]2 | %7
 .[C,,C,].[D,,D,].[E,,E,].[F,,F,] .[G,,G,].[E,,E,].[G,,G,].[C,C] | %8
 !>!.!^![B,,B,].[G,,G,].[E,,E,].[G,,G,] !>![B,,B,]2 z2 | %9
!pp! .[G,,G,]2 .[D,D]2 .[G,,G,]2 .[=B,,=B,]2 | .[E,,E,]2 .[=B,,=B,]2 .[G,,G,]2 .[B,,B,]2 | %11
 .[G,,G,]2 .[D,D]2 .[G,,G,]2 .[=B,,=B,]2 | .[E,,E,]2 .[=B,,=B,]2 .[G,,G,]2 .[B,,B,]2 | %13
!p! .[G,,G,].[=A,,=A,].[=B,,=B,].[C,C] !>!.!^![D,D].[B,,B,] .[D,D]2 | %14
 !>!.!^![E,E].[=B,,=B,] .[E,E]2 !>!.!^![D,D].[B,,B,] .[D,D]2 | %15
 .[G,,G,].[=A,,=A,].[=B,,=B,].[C,C] !>!.!^![D,D].[B,,B,] .[D,D]2 | %16
 !>!.!^![E,E].[=B,,=B,] .[E,E]2 !>![D,D]2 z2 |!pp! .[C,,C,]2 .[G,,G,]2 .[C,,C,]2 .[G,,G,]2 | %18
 .[C,,C,]2 .[G,,G,]2 .[C,,C,]2 .[G,,G,]2 | .[C,,C,]2 .[G,,G,]2 .[C,,C,]2 .[G,,G,]2 | %20
 .[E,,E,]2 .[B,,B,]2 .[E,,E,]2 .[B,,B,]2 | %21
!p! .[C,,C,].[D,,D,].[E,,E,].[F,,F,] !>!.!^![G,,G,].[E,,E,] .[G,,G,]2 | %22
 !>!.!^![^F,,^F,].[D,,D,] .[F,,F,]2 !>!.!^![=F,,=F,].[^C,,^C,] .[F,,F,]2 | %23
 .[C,,C,].[D,,D,].[E,,E,].[F,,F,] .[G,,G,].[E,,E,].[G,,G,].[C,C] | %24
 .[G,,G,].[E,,E,].[G,,G,].[C,C] [C,,C,]4 || .C,2 .G,2 .C,2 .G,2 | .C,2 .G,2 .C,2 .G,2 | %27
 .C,2 .G,2 .C,2 .G,2 | .E,2 .G,2 .E,2 .G,2 | .C,2 .G,2 .C,2 .G,2 | .C,2 .G,2 .C,2 .G,2 | %31
 .C,2 .G,2 .C,2 .G,2 | .E,2 .G,2 .E,2 .G,2 | .G,2 .G,2 .G,2 .G,2 | .E,2 .G,2 .G,2 .G,2 | %35
 .G,2 .G,2 .G,2 .G,2 | .E,2 .G,2 .G,2 .G,2 | .G,2 .G,2 .G,2 .G,2 | .E,2 .G,2 .G,2 .G,2 | %39
 .G,2 .G,2 .G,2 .G,2 | .E,2 .G,2 .G,2 .G,2 | z8 | z8 | z8 | z8 | z8 | z8 | z8 | z8 || %49
!ff! .C,2 z2 .C,2 z2 | .C,2 z2 .C,2 z2 | .C,2 z2 .C,2 z2 | .E,2 z2 .E,2 z2 | .C,2 z2 .C,2 z2 | %54
 .C,2 z2 .C,2 z2 | .C,2 z2 .C,2 z2 | .E,2 z2 .E,2 z2 | .G,2 z2 .G,2 z2 | !>!.!^!E,2 z2 .G,2 z2 | %59
 .G,2 z2 .G,2 z2 | !>!.!^!E,2 z2 .G,2 z2 | .G,2 z2 .G,2 z2 | !>!.=E,2 z2 .G,2 z2 | %63
 .G,2 z2 .G,2 z2 | !>!.=E,2 z2 .G,2 z2 | .C,2 z2 .C,2 z2 | .C,2 z2 .C,2 z2 | .C,2 z2 .C,2 z2 | %68
 .E,2 z2 .E,2 z2 | .C,2 z2 .C,2 z2 | .C,2 z2 .C,2 z2 | .C,2 z2 .C,2 z2 | .C,2 z2 .C,2 z2 | %73
 !>!.!^!C,2 z2 z4 | !>!.!^!C,2 z2 z4 | !>!A,3 z !>!G,3 z | !>!G,,3 z !>!C,3 z | !>!.!^!C,2 z2 z4 | %78
 !>!.!^!C,2 z2 z4 | !>!A,3 z !>!G,3 z | !>!G,,3 z !>!C,3 z | !>!.!^!C,2 z2 z4 | !>!.!^!C,2 z2 z4 | %83
 !>!.!^!C,2 z2 z4 | z8 | z8 | z8 | !>!.!^!C,2 z2 z4 |] %88
V:3
[K:C]!pp! !fermata!e8 | z8 | z8 | z8 | z4!p! G4 | z8 | z8 | z8 | z4!p! G4 | z8 | z8 | z8 | z4 B4 | %13
 z8 | z8 | z8 | z4 B4 | z8 | z8 | z8 | z4 G4 | z8 | z8 | z8 | z8 || z2!p! .c2 z2 .c2 | %26
 z2 .B2 z2 .^A2 | z2 .A2 z2 .A2 | z2 .G2 z2 .G2 | .A.B.c.d !>!.!^!e.c .e2 | %30
 !>!.!^!^d.B .d2 !>!.!^!=d.^A .d2 | .A.B.c.d .e.c.e.a | !>!.!^!g.e.c.e !>!g4 | %33
!<(! z2"^cresc. e stretto poco a poco" .^g2 z2 .g2 | z2 .^g2 z2 .g2 | z2 .^g2 z2 .g2 | %36
 z2 .^g2 z2 .g2 |"^I.""^cresc. poco a poco" .e.^f.^g.a !>!.!^!b.g .b2 | %38
 !>!.!^!c'.^g .c'2 !>!.!^!b.g .b2 | .e.^f.^g.a !>!.!^!b.g .b2 | !>!.!^!c'.^g .c'2 !>!b4 | %41
 z2"^più cresc."!f! .c'2 z2 .c'2 | z2 .b2 z2 .^a2 | z2 .a2 z2 .a2 | z2 .g2 z2 .g2 | %45
"^più " .A.B.c.d !>!.!^!e.c .e2 | !>!.!^!^d.B .d2 !>!.!^!=d.^A .d2!<)! | %47
!p!!<(! .A.B.c.d .e.c.e.a | .e.c.e.a !>!a4!<)! ||!ff! ABcd !>!ec e2 | !>!^dB d2 !>!=d^A d2 | %51
 ABcd ecea | !>!gece !>!g4 | ABcd !>!ec e2 | !>!^dB d2 !>!=d^A d2 | ABcd ecea | !>!gece !>!g4 | %57
 e^f^ga !>!bg b2 | !>!c'^g c'2 !>!bg b2 | e^f^ga !>!bg b2 | !>!c'^g c'2 !>!b4 | e^f^ga !>!bg b2 | %62
 !>!^c'^g c'2 !>!bg b2 | e^f^ga !>!bg b2 | !>!^c'^g c'2 !>!b4 |!ff! ABcd !>!ec e2 | %66
 !>!^dB d2 !>!=d^A d2 | ABcd ecea | !>!gece !>!g4 | ABcd !>!ec e2 | !>!^dB d2 !>!=d^A d2 | %71
 ABcd ecea | ecea !>!a4 | z2"_"{/^fg^g} !>!.!^!a2 z4 | z2{/^fg^g} !>!.!^!a2 z4 | %75
!mp!!<(! .A.B.c.d .e.c.e.a | .^g.e.g.b!<)!!ff! !>!a4 | z2"_"{/^fg^g} !>!.!^!a2 z4 | %78
 z2{/^fg^g} !>!.!^!a2 z4 |!mf!!<(! ABcd ecea | ^gegb!<)!!ff! !>!a4 | %81
 z2"_"{/^fg^g} !>!.!^!a2 z4 | z2"_"{/^fg^g} !>!.!^!a2 z4 | %83
 z2!p!!<(!{/^fg^g} !>!.!^!a2{/f=g^g} !>!.!^!a2{/f=g^g} !>!.!^!a2 | %84
{/^fg^g} !>!.!^!a2{/f=g^g} !>!.!^!a2{/f=g^g} !>!.!^!a2!<)!!ff!{/f=g^g} !>!.!^!a2 | z8 | z8 | %87
!fff! z2{/^fg^g} !>!.!^!a2 z4 |] %88
V:4
 !fermata!z8 |!p! .C,.D,.E,.F, !>!.G,.E, .G,2 | !>!.^F,.D, .F,2 !>!.=F,.^C, .F,2 | %3
 .C,.D,.E,.F, .G,.E,.G,.C | !>!.B,.G,.E,.G, !>!B,2 z2 |!pp! .C,2 .G,2 .C,2 .G,2 | %6
 .C,2 .G,2 .C,2 .G,2 | .C,2 .G,2 .C,2 .G,2 | .E,2 .B,2 .E,2 .B,2 |!p! .G,.=A,.=B,.C !>!.D.B, .D2 | %10
 !>!.E.=B, .E2 !>!.D.B, .D2 | .G,.=A,.=B,.C !>!.D.B, .D2 | !>!.E.=B, .E2 !>!.D2 z2 | %13
!pp!"^Vc." .G,2 .D2 .G,2 .=B,2 | .E,2 .=B,2 .G,2 .B,2 | .G,2 .D2 .G,2 .=B,2 | %16
 .E,2 .=B,2 .G,2 .B,2 |!p! .C,.D,.E,.F, !>!.G,.E, .G,2 | !>!.^F,.D, .F,2 !>!.=F,.^C, .F,2 | %19
 .C,.D,.E,.F, .G,.E,.G,.C | !>!.B,.G,.E,.G, !>!B,2 z2 |!pp! .C,2 .G,2 .C,2 .G,2 | %22
 .C,2 .G,2 .C,2 .G,2 | .C,2 .C2 .B,2 .A,2 | .G,2 .F,2 .E,2 .D,2 || %25
[K:treble] z2!p! .[EG]2 z2 .[EG]2 | z2 .[D^F]2 z2 .[^C=F]2 | z2 .[CE]2 z2 .[CE]2 | %28
 z2 .[B,E]2 z2 .[B,E]2 | z2 .[EG]2 z2 .[EG]2 | z2 .[D^F]2 z2 .[^C=F]2 | z2 .[CE]2 z2 .[CE]2 | %32
 z2 .[B,E]2 z2 .[B,E]2 |!<(! z2"^cresc. e stretto poco a poco" .[=Bd]2 z2 .[Bd]2 | %34
 z2 .[=Be]2 z2 .[Bd]2 | z2 .[=Bd]2 z2 .[Bd]2 | z2 .[=Be]2 z2 .[Bd]2 | z2 .[=Bd]2 z2 .[Bd]2 | %38
 z2 .[=Be]2 z2 .[Bd]2 | z2 .[=Bd]2 z2 .[Bd]2 | z2 .[=Be]2 z2 .[Bd]2 | %41
 z2"^più cresc."!f! .[Geg]2 z2 .[Geg]2 | z2 .[Gd^f]2 z2 .[G^c=f]2 | z2 .[Gce]2 z2 .[Gce]2 | %44
 z2 .[GBe]2 z2 .[GBe]2 | z2 .[Geg]2 z2 .[Geg]2 | z2 .[Gd^f]2 z2 .[G^c=f]2!<)! | %47
!p!!<(! z2 [Cc]2 [CBc]2 [CAc]2!<)! | [CGc]2 !>![CFc]2 !>![CEc]2 !>![CDc]2 || %49
 z2!ff! (!>!g/^f/.g) z2 (!>!g/f/.g) | z2 (!>!^f/^e/.f) z2 (!>!=f/=e/.f) | %51
 z2!ff! (!>!g/^f/.g) z2 (!>!g/f/.g) | z2 (!>!b/=a/.b) z2 (!>!b/a/.b) | %53
 z2 (!>!g/^f/.g) z2 (!>!g/f/.g) | z2 (!>!^f/^e/.f) z2 (!>!=f/=e/.f) | %55
 z2 (!>!g/^f/.g) z2 (!>!g/f/.g) | z2 !>!b/=a/b z2 !>!b/a/b | %57
 z2!ff! (!>![=bd']/[gb]/.[bd']) z2 (!>![bd']/[gb]/.[bd']) | %58
 z2 (!>![=be']/[gb]/.[be']) z2 (!>![bd']/[gb]/.[bd']) | %59
 .[Gg].[=Ag].[=Bg].[cg] !>!.!^![dg].[Bg] .[dg]2 | !>!.!^![eg].[=Bg] [eg]2 !>![dg]4 | %61
 z2 (!>![=bd']/[gb]/.[bd']) z2 (!>![bd']/[gb]/.[bd']) | %62
 z2 (!>![=b=e']/[gb]/.[be']) z2 (!>![bd']/[gb]/.[bd']) | %63
 .[Gg].[=Ag].[=Bg].[cg] !>!.!^![dg].[Bg] .[dg]2 | !>!.!^![=eg].[=Bg] [eg]2 !>![dg]4 | %65
!ff! z2 .[Gceg]2 z2 .[Gceg]2 | z2 .[Gcd^f]2 z2 .[F^c=f]2 | z2 .[Gceg]2 z2 .[Gceg]2 | %68
 z2 .[Begb]2 z2 .[Begb]2 | z2 .[Gceg]2 z2 .[Gceg]2 | z2 .[Gcd^f]2 z2 .[F^c=f]2 | %71
 z2 .[Gceg]2 z2 .[Gceg]2 | z2 .[cegc']2 z2 .[cegc']2 |!ff! z2 [e^f=ac']2 z4 | z2 [cegc']2 z4 | %75
!mp!!<(! z2 [EAc]2 z2 [EGc]2 | z2 [FG=Bd]2 z2 [CEGc]2!<)! |!ff! z2 [e^f=ac']2 z4 | z2 [cegc']2 z4 | %79
!mf!!<(! z2 [EAc]2 z2 [EGc]2 | z2 [FG=Bd]2 z2 [CEGc]2!<)! |!ff! z2 [e^f=ac']2 z4 | %82
 z2 [e^f=ac']2 z4 |!ff! z2!p!!<(! [e^f=ac']2 [efac']2 [efac']2 | %84
 [e^f=ac']2 [efac']2 [efac']2!<)!!ff! [efac']2 | z8 | z8 |!fff! z2 [cegc']2 z4 |] %88
V:5
 !fermata!z8 |!p! .C,,.D,,.E,,.F,, !>!.G,,.E,, .G,,2 | !>!.^F,,.D,, .F,,2 !>!.=F,,.^C,, .F,,2 | %3
 .C,,.D,,.E,,.F,, .G,,.E,,.G,,.C, | !>!.B,,.G,,.E,,.G,, !>!B,,2 z2 |!pp! .C,,2 .G,,2 .C,,2 .G,,2 | %6
 .C,,2 .G,,2 .C,,2 .G,,2 | .C,,2 .G,,2 .C,,2 .G,,2 | .E,,2 .B,,2 .E,,2 .B,,2 | %9
!p! .G,,.=A,,.=B,,.C, !>!.D,.B,, .D,2 | !>!.E,.=B,, .E,2 !>!.D,.B,, .D,2 | %11
 .G,,.=A,,.=B,,.C, !>!.D,.B,, .D,2 | !>!.E,.=B,, .E,2 !>!.D,2 z2 | %13
!pp!"^B." .G,,2 .D,2 .G,,2 .=B,,2 | .E,,2 .=B,,2 .G,,2 .B,,2 | .G,,2 .D,2 .G,,2 .=B,,2 | %16
 .E,,2 .=B,,2 .G,,2 .B,,2 |!p! .C,,.D,,.E,,.F,, !>!.G,,.E,, .G,,2 | %18
 !>!.^F,,.D,, .F,,2 !>!.=F,,.^C,, .F,,2 | .C,,.D,,.E,,.F,, .G,,.E,,.G,,.C, | %20
 !>!.B,,.G,,.E,,.G,, !>!B,,2 z2 |!pp! .C,,2 .G,,2 .C,,2 .G,,2 | .C,,2 .G,,2 .C,,2 .G,,2 | %23
 .C,,2 .C,2 .B,,2 .A,,2 | .G,,2 .F,,2 .E,,2 .D,,2 || %25
!ped! .C,,2 (!3!G,,/!ped-up!_G,,/=G,,)!ped! .C,,2 (G,,/_G,,/=G,,) | %26
!ped! .C,,2!ped-up! (!2!G,,/_G,,/!ped-up!=G,,)!ped! .C,,2 (!2!G,,/_G,,/=G,,) | %27
!ped! .C,,2!ped-up! (G,,/_G,,/!ped-up!=G,,)!ped! .C,,2 (G,,/_G,,/=G,,) | %28
!ped! .E,,2!ped-up! (!3!B,,/__B,,/!ped-up!_B,,)!ped! .E,,2 (B,,/__B,,/_B,,) | %29
!ped! .C,,2 (G,,/_G,,/!ped-up!=G,,)!ped! .C,,2 (G,,/_G,,/=G,,)!ped-up! | %30
!ped! .C,,2!ped-up! (G,,/_G,,/!ped-up!=G,,)!ped! C,,2 (G,,/_G,,/=G,,) | %31
!ped! .C,,2!ped-up! (G,,/_G,,/!ped-up!=G,,)!ped! .C,,2 (G,,/_G,,/=G,,) | %32
!ped! .E,,2!ped-up! (!3!B,,/__B,,/!ped-up!_B,,)!ped! .E,,2 (B,,/__B,,/_B,,) | %33
!ped! .G,,2 (!3!D,/_D,/!ped-up!=D,)!ped! .G,,2 (D,/_D,/=D,)!ped-up! | %34
!ped! .E,,2!ped-up! (!3!E,/D,/!ped-up!E,)!ped! .G,,2 (!3!D,/_D,/=D,) | %35
!ped! .G,,2!ped-up! (D,/_D,/!ped-up!=D,)!ped! .G,,2 (D,/_D,/=D,) | %36
!ped! .E,,2!ped-up! (E,/D,/!ped-up!E,)!ped! .G,,2 (D,/_D,/=D,) | %37
!ped! .G,,2 (D,/_D,/!ped-up!=D,)!ped! .G,,2 (D,/_D,/=D,)!ped-up! | %38
!ped! .E,,2!ped-up! (E,/D,/!ped-up!E,)!ped! .G,,2 (D,/_D,/=D,) | %39
!ped! .G,,2!ped-up! (D,/_D,/!ped-up!=D,)!ped! .G,,2 (D,/_D,/=D,) | %40
!ped! .E,,2!ped-up! (E,/D,/!ped-up!E,)!ped! .G,,2 (D,/_D,/=D,) | %41
!ped! (3C,,!3!_G,,!2!=G,,(3!1!E,!3!_G,,!2!=G,,!ped! (3C,,!ped-up!!3!_G,,!2!=G,,(3E,!3!_G,,!2!=G,,!ped-up! | %42
!ped! (3C,,!ped-up!_G,,=G,,(3D,_G,,=G,,!ped! (3C,,!ped-up!_G,,=G,,(3_D,_G,,=G,, | %43
 (3C,,_G,,=G,,(3E,_G,,=G,, (3C,,_G,,=G,,(3E,_G,,=G,, | %44
 (3E,,!3!=A,,!2!B,,(3E,!3!A,,!2!B,, (3E,,!3!A,,!2!B,,(3E,!3!A,,!2!B,, | %45
 (3C,,_G,,=G,,(3E,_G,,=G,, (3C,,_G,,=G,,(3E,_G,,=G,, | %46
 (3C,,_G,,=G,,(3D,_G,,=G,, (3C,,_G,,=G,,(3_D,_G,,=G,, | %47
!ped! (3C,,_G,,=G,, [C,C]2 .!5!!4![B,,C,B,]2!ped-up! !3![A,,C,A,]2 | %48
 [G,,C,G,]2 !>!!2![F,,C,F,]2 !>![E,,C,E,]2 !>![D,,C,D,]2 || %49
!ped! !>![C,,C,].!2!B,,.!3!A,,.!4!G,,!ped-up!!ped! !>![C,,C,]!ped-up!.B,,.A,,.G,, | %50
!ped! !>![C,,C,]!ped-up!.B,,.A,,.G,, !>![C,,C,].B,,.A,,.G,, | %51
 !>![C,,C,].B,,.A,,.G,, !>![C,,C,].B,,.A,,.G,, | !>![E,,E,].D,.C,.B,, !>![E,,E,].D,.C,.B,, | %53
 !>![C,,C,].B,,.A,,.G,, !>![C,,C,].B,,.A,,.G,, | !>![C,,C,].B,,.A,,.G,, !>![C,,C,].B,,.A,,.G,, | %55
 !>![C,,C,].B,,.A,,.G,, !>![C,,C,].B,,.A,,.G,, | !>![E,,E,].D,.C,.B,, !>![E,,E,].D,.C,.B,, | %57
"^sempre stretto sin al fine" !>![G,,G,].F,.E,.D, !>![G,,G,].F,.E,.D, | %58
 !>![E,,E,].!4!D,.!3!E,.!2!F, !>![G,,G,].F,.E,.D, | !>![G,,G,].F,.E,.D, !>![G,,G,].F,.E,.D, | %60
 !>![E,,E,].!4!D,.E,.F, !>![G,,G,].F,.E,.D, | !>![G,,G,].^F,.=E,.D, !>![G,,G,].F,.E,.D, | %62
 !>![=E,,=E,].!4!D,.E,.^F, !>![G,,G,].F,.E,.D, | !>![G,,G,].^F,.=E,.D, !>![G,,G,].F,.E,.D, | %64
 !>![=E,,=E,].!4!D,.E,.^F, !>![G,,G,].F,.E,.D, | !>![C,,C,].B,,.A,,.G,, !>![C,,C,].B,,.A,,.G,, | %66
 !>![C,,C,].B,,.A,,.G,, !>![C,,C,].B,,.A,,.G,, | !>![C,,C,].B,,.A,,.G,, !>![C,,C,].B,,.A,,.G,, | %68
 !>![E,,E,].D,.C,.B,, !>![E,,E,].D,.C,.B,, | !>![C,,C,].B,,.A,,.G,, !>![C,,C,].B,,.A,,.G,, | %70
 !>![C,,C,].B,,.A,,.G,, !>![C,,C,].B,,.A,,.G,, | !>![C,,C,].B,,.A,,.G,, !>![C,,C,].B,,.A,,.G,, | %72
 !>![C,,C,].B,,.A,,.G,, !>![C,,C,].B,,.A,,.G,, | !>![C,,C,]2 [C,E,^F,=A,]2 z4 | %74
 !>![C,,C,]2 [C,E,G,]2 z4 |!mp!!ped! !>![A,,A,]2!ped-up! z2!ped! !>![G,,G,]2!ped-up! z2 | %76
!ped! !>![G,,,G,,]2!ped-up! z2 !>![C,,C,]2 z2 | !>![C,,C,]2 [C,E,^F,=A,]2 z4 | %78
 !>![C,,C,]2 [C,E,G,]2 z4 |!mp!!ped! !>![A,,A,]2 z2!ped! !>![G,,G,]2!ped-up! z2 | %80
!ped! !>![G,,,G,,]2!ped-up! z2 !>![C,,C,]2 z2 | !>![C,,C,]2 [C,E,^F,=A,]2 z4 | %82
 !>![C,,C,]2 [C,E,^F,=A,]2 z4 | !>![C,,C,]2 [C,E,^F,=A,]2 [C,E,F,A,]2 [C,E,F,A,]2 | %84
 [C,E,^F,=A,]2 [C,E,F,A,]2 [C,E,F,A,]2 [C,E,F,A,]2 | z4!p!!<(!!8vb(! !//-!C,,2 C,,,2 | %86
 !//-!C,,2 C,,,2 !//-!C,,2 C,,,2!<)!!8vb)! | !>![C,,,C,,]2 z2 z4 |] %88
V:6
 x8 | x8 | x8 | x8 | x8 | x8 | x8 | x8 | x8 | x8 | x8 | x8 | x8 | x8 | x8 | x8 | x8 | x8 | x8 | %19
 x8 | x8 | x8 | x8 | x8 | x8 ||[K:treble] x8 | x8 | x8 | x8 | x8 | x8 | x8 | x8 | x8 | x8 | x8 | %36
 x8 | x8 | x8 | x8 | x8 | x8 | x8 | x8 | x8 | x8 | x8 | x8 | x8 || x2 e2 z2 e2 | z2 d2 z2 ^c2 | %51
 z2 e2 z2 e2 | z2 g2 z2 g2 | z2 e2 z2 e2 | z2 d2 z2 ^c2 | z2 e2 z2 e2 | z2 g2 z2 g2 | z8 | x8 | %59
 x8 | x8 | x8 | x8 | x8 | x8 | x8 | x8 | x8 | x8 | x8 | x8 | x8 | x8 | x8 | x8 | x8 | x8 | x8 | %78
 x8 | x8 | x8 | x8 | x8 | x8 | x8 | x8 | x8 | x8 |] %88

